.icons/oomox-ad/16x16/apps/distributor-logo-linux-lite.svg

<svg width="16" height="16" version="1" xmlns="http://www.w3.org/2000/svg">
 <rect width="16" height="16" rx=".8" ry=".8" style="fill:#4f4f4f"/>
 <path d="m9.0480041 0.99999987c-1.0139813 0.61302993-2.0555431 1.1835215-3.0470939 1.8317574-0.363788 1.7381737-0.7162747 3.4788971-1.0569836 5.2217358 0.3823717 0.4854479 0.8017549 0.9405208 1.197782 1.4147881-0.386841-0.123431-0.8727914-0.4017423-1.2997086-0.5740169 0.3360745 1.2412527 0.6876121 2.4788317 1.0541947 3.7114197 0.4901478-0.042157 0.976568-0.1205 1.4665573-0.164264-0.3517459 0.362377-0.7315297 0.696556-1.0853637 1.05688 0.6185649-0.257386 1.2269448-0.538614 1.8434266-0.800952 0.1184429 0.194039-0.2327669 0.888871-0.2800864 1.265827 0.2702354-0.437649 0.5276443-0.883351 0.7844463-1.329035l0.2366342-0.111292s-0.069295-0.06944 0 0c0.5374357 0.08477 1.0736839 0.18711 1.610682 0.268084-0.4832525-0.237223-0.9745454-0.457747-1.4578053-0.694957 0.4832706-0.20034 0.9981903-0.352366 1.4918403-0.539086-0.485495-0.0045-0.971018 0.0087-1.4565257 0.0033 0.078432-0.173192 0.664529-0.478724 0.9184122-0.715379-0.3546153-0.411938-0.7541741-0.783077-1.1113635-1.1927355 0.6177665-2.0230458 1.266027-4.0367198 1.900442-6.0546255-0.568939-0.8663662-1.1247456-1.7417272-1.7094869-2.5974458z" style="fill:#ffc107"/>
 <path d="m8.5555812 2.7455378c-0.8543133 2.2966433-1.3939158 5.0722414-1.5250562 7.6380282-0.0308989 0.357517-0.0221818 0.285075 0.2110586 0.565789 1.1576448 1.393474 2.3128297 2.867778 3.4768824 4.050645l-3.8e-4 -0.0817c-1.1127633-1.525766-2.2255262-2.812123-3.3382894-4.168841-0.0973486-0.116859-0.1238823-0.118509-0.1157632-0.260096 0.1477021-2.5717556 0.726234-5.4192988 1.2915478-7.7438252z" style="fill:#ffffff"/>
</svg>

<svg xmlns="http://www.w3.org/2000/svg" width="16" height="16" version="1">
 <rect style="fill:#636e72" width="16" height="16" x="0" y="0" rx=".8" ry=".8"/>
 <path style="fill:#ffe082" d="M 9.0480041,0.99999987 C 8.0340228,1.6130298 6.992461,2.1835214 6.0009102,2.8317573 5.6371222,4.569931 5.2846355,6.3106544 4.9439266,8.0534931 5.3262983,8.538941 5.7456815,8.9940139 6.1417086,9.4682812 5.7548676,9.3448502 5.2689172,9.0665389 4.842,8.8942643 5.1780745,10.135517 5.5296121,11.373096 5.8961947,12.605684 6.3863425,12.563527 6.8727627,12.485184 7.362752,12.44142 7.0110061,12.803797 6.6312223,13.137976 6.2773883,13.4983 6.8959532,13.240914 7.5043331,12.959686 8.1208149,12.697348 8.2392578,12.891387 7.888048,13.586219 7.8407285,13.963175 8.1109639,13.525526 8.3683728,13.079824 8.6251748,12.63414 L 8.861809,12.522848 c 0,0 -0.069295,-0.06944 0,0 0.5374357,0.08477 1.0736839,0.18711 1.610682,0.268084 -0.4832525,-0.237223 -0.9745454,-0.457747 -1.4578053,-0.694957 0.4832706,-0.20034 0.9981903,-0.352366 1.4918403,-0.539086 -0.485495,-0.0045 -0.971018,0.0087 -1.4565257,0.0033 0.078432,-0.173192 0.664529,-0.478724 0.9184122,-0.715379 C 9.6137972,10.432872 9.2142384,10.061733 8.857049,9.6520745 9.4748155,7.6290287 10.123076,5.6153547 10.757491,3.597449 10.188552,2.7310828 9.6327454,1.8557218 9.0480041,1.0000032 Z"/>
 <path style="fill:#ffffff" d="M 8.5555812,2.7455378 C 7.7012679,5.0421811 7.1616654,7.8177792 7.030525,10.383566 6.9996261,10.741083 7.0083432,10.668641 7.2415836,10.949355 8.3992284,12.342829 9.5544133,13.817133 10.718466,15 l -3.8e-4,-0.0817 C 9.6053227,13.392534 8.4925598,12.106177 7.3797966,10.749459 7.282448,10.6326 7.2559143,10.63095 7.2640334,10.489363 7.4117355,7.9176074 7.9902674,5.0700642 8.5555812,2.7455378 Z"/>
</svg>
